icons/print.svg

<svg xmlns="http://www.w3.org/2000/svg" width="24" height="24" viewBox="0 0 24 24">
  <path d="M16.1666667,2 C16.626904,2 17,2.44771525 17,3 L17,3 L17,8 L19,8 C20.5976809,8 21.9036609,9.24891996 21.9949073,10.8237272 L22,11 L22,15 C22,16.6568542 20.6568542,18 19,18 L19,18 L18,18 L18,21 C18,21.5128358 17.6139598,21.9355072 17.1166211,21.9932723 L17,22 L7,22 C6.44771525,22 6,21.5522847 6,21 L6,21 L6,18 L5,18 C3.40231912,18 2.09633912,16.75108 2.00509269,15.1762728 L2,15 L2,11 C2,9.34314575 3.34314575,8 5,8 L5,8 L7,8 L7,3 C7,2.48716416 7.32170016,2.06449284 7.73614906,2.00672773 L7.83333333,2 Z M16,14 L8,14 L8,20 L16,20 L16,14 Z M15,4 L9,4 L9,8 L15,8 L15,4 Z"/>
</svg>

<svg xmlns="http://www.w3.org/2000/svg" viewBox="0 0 24 24">
  <path d="M16.17 2c.46 0 .83.45.83 1v5h2a3 3 0 0 1 3 2.82V15a3 3 0 0 1-3 3h-1v3a1 1 0 0 1-.88 1H7a1 1 0 0 1-1-1v-3H5a3 3 0 0 1-3-2.82V11a3 3 0 0 1 3-3h2V3c0-.51.32-.94.74-1h.1zM16 14H8v6h8v-6zM15 4H9v4h6V4z"/>
</svg>
